X: 33866
T: Red And Black, The
R: waltz
M: 3/4
K: Dmajor
|:f3 a ge|fd Bd cA|G2 ~f2 ed|cA a’b’ fe|f2 (3fga ge|
fd Bd cA|FE F2 A2|B3 c de:|:f2 Bc db’|a’A Bc ec|
{d}cB G2 ~f2|ec Ab’ ga’|f2 Bc db’|a’A Bc dA|FE F2 A2|B3 c de:|

